SVG_Azure_Grouped/Application/Function App Scale out.svg

<?xml version="1.0" encoding="UTF-8" standalone="no"?>
<!-- Generated by Microsoft Visio, SVG Export Function App Scale out.svg Page-1 -->

<svg
   xmlns:dc="http://purl.org/dc/elements/1.1/"
   xmlns:cc="http://creativecommons.org/ns#"
   xmlns:rdf="http://www.w3.org/1999/02/22-rdf-syntax-ns#"
   xmlns:svg="http://www.w3.org/2000/svg"
   xmlns="http://www.w3.org/2000/svg"
   xmlns:sodipodi="http://sodipodi.sourceforge.net/DTD/sodipodi-0.dtd"
   xmlns:inkscape="http://www.inkscape.org/namespaces/inkscape"
   width="0.7873987in"
   height="0.78735679in"
   viewBox="0 0 56.692614 56.69"
   xml:space="preserve"
   class="st6"
   version="1.1"
   id="svg55"
   sodipodi:docname="Function App Scale out.svg"
   style="font-size:12px;overflow:visible;color-interpolation-filters:sRGB;fill:none;fill-rule:evenodd;stroke-linecap:square;stroke-miterlimit:3"
   inkscape:version="0.92.5 (2060ec1f9f, 2020-04-08)"><metadata
   id="metadata59"><rdf:RDF><cc:Work
       rdf:about=""><dc:format>image/svg+xml</dc:format><dc:type
         rdf:resource="http://purl.org/dc/dcmitype/StillImage" /></cc:Work></rdf:RDF></metadata><sodipodi:namedview
   pagecolor="#ffffff"
   bordercolor="#666666"
   borderopacity="1"
   objecttolerance="10"
   gridtolerance="10"
   guidetolerance="10"
   inkscape:pageopacity="0"
   inkscape:pageshadow="2"
   inkscape:window-width="640"
   inkscape:window-height="480"
   id="namedview57"
   showgrid="false"
   inkscape:zoom="1.4193119"
   inkscape:cx="37.795128"
   inkscape:cy="37.786193"
   inkscape:window-x="0"
   inkscape:window-y="0"
   inkscape:window-maximized="0"
   inkscape:current-layer="svg55" />
	<style
   type="text/css"
   id="style2">
	<![CDATA[
		.st1 {fill:url(#grad0-6);stroke:none;stroke-linecap:butt;stroke-width:34}
		.st2 {fill:#003067;stroke:none;stroke-linecap:butt;stroke-width:34}
		.st3 {fill:#5ea0ef;stroke:none;stroke-linecap:butt;stroke-width:34}
		.st4 {fill:#76bc2d;stroke:none;stroke-linecap:butt;stroke-width:34}
		.st5 {fill:url(#grad0-18);stroke:none;stroke-linecap:butt;stroke-width:34}
		.st6 {fill:none;fill-rule:evenodd;font-size:12px;overflow:visible;stroke-linecap:square;stroke-miterlimit:3}
	]]>
	</style>

	<defs
   id="Patterns_And_Gradients">
		<linearGradient
   id="grad0-6"
   x1="0"
   y1="61.166085"
   x2="31.443889"
   y2="61.166085"
   gradientTransform="scale(0.74259262,1.3466334)"
   gradientUnits="userSpaceOnUse">
			<stop
   offset="0"
   stop-color="#b3b2b3"
   stop-opacity="1"
   id="stop4" />
			<stop
   offset="1"
   stop-color="#979797"
   stop-opacity="1"
   id="stop6" />
		</linearGradient>
		<linearGradient
   id="grad0-18"
   x1="0"
   y1="99.039225"
   x2="23.283877"
   y2="99.039225"
   gradientTransform="scale(0.98086411,1.0195092)"
   gradientUnits="userSpaceOnUse">
			<stop
   offset="0"
   stop-color="#6bb9f2"
   stop-opacity="1"
   id="stop9" />
			<stop
   offset="1"
   stop-color="#1b93eb"
   stop-opacity="1"
   id="stop11" />
		</linearGradient>
	</defs>
	<g
   id="g53"
   transform="translate(-34.000441,-34.0043)">
		<title
   id="title15">Page-1</title>
		<g
   id="group13887-1"
   transform="translate(34,-34.0157)">
			<title
   id="title17">Function App Scale out.13887</title>
			<g
   id="group13888-2">
				<title
   id="title19">Sheet.13888</title>
				<g
   id="shape13889-3"
   transform="translate(6.46898,-7.70079)">
					<title
   id="title21">Sheet.13889</title>
					<path
   d="M 23.35,123.49 A 1.28558,1.28189 0 0 1 22,124.71 H 1.35 A 1.28558,1.28189 0 0 1 0,123.49 V 83.59 A 1.28558,1.28189 0 0 1 1.35,82.37 H 22 a 1.28558,1.28189 0 0 1 1.35,1.21 z"
   class="st1"
   id="path23"
   inkscape:connector-curvature="0"
   style="fill:url(#grad0-6);stroke:none;stroke-width:34;stroke-linecap:butt" />
				</g>
				<g
   id="shape13890-7"
   transform="translate(9.88667,-31.8961)">
					<title
   id="title26">Sheet.13890</title>
					<path
   d="m 0,121.91 a 2.67856,2.67087 0 0 1 2.53,-2.79 h 11.64 a 2.68172,2.67402 0 0 1 2.53,2.79 2.68172,2.67402 0 0 1 -2.53,2.8 H 2.54 A 2.67856,2.67087 0 0 1 0,121.91 Z m 0,-8.29 a 2.67856,2.67087 0 0 1 2.53,-2.79 h 11.64 a 2.68172,2.67402 0 0 1 2.53,2.79 2.68172,2.67402 0 0 1 -2.53,2.79 H 2.54 A 2.6754,2.66772 0 0 1 0,113.62 Z"
   class="st2"
   id="path28"
   inkscape:connector-curvature="0"
   style="fill:#003067;stroke:none;stroke-width:34;stroke-linecap:butt" />
				</g>
				<g
   id="shape13891-9"
   transform="translate(11.2796,-41.1181)">
					<title
   id="title31">Sheet.13891</title>
					<ellipse
   cx="1.87626"
   cy="122.838"
   rx="1.87626"
   ry="1.87087"
   class="st3"
   id="ellipse33"
   style="fill:#5ea0ef;stroke:none;stroke-width:34;stroke-linecap:butt" />
				</g>
				<g
   id="shape13892-11"
   transform="translate(11.2796,-32.8283)">
					<title
   id="title36">Sheet.13892</title>
					<ellipse
   cx="1.87626"
   cy="122.838"
   rx="1.87626"
   ry="1.87087"
   class="st3"
   id="ellipse38"
   style="fill:#5ea0ef;stroke:none;stroke-width:34;stroke-linecap:butt" />
				</g>
				<g
   id="shape13893-13">
					<title
   id="title41">Sheet.13893</title>
					<path
   d="M 9,124.71 H 5.98 v -2.96 H 9 Z m 5.95,0 h -3.01 v -2.96 h 3.02 z m 5.95,0 h -3.01 v -2.96 h 3.02 z m 5.96,0 h -3.01 v -2.96 h 3.02 z m 5.96,0 h -3.01 v -2.96 h 3.01 z m 6.24,0 h -3.01 v -2.96 h 3.01 z M 0,121.75 h 2.96 v 2.96 H 0 Z m 0,-5.66 h 2.96 v 2.95 H 0 Z m 0,-5.93 h 2.96 v 2.96 H 0 Z m 2.96,-3.07 H 0 v -3.01 h 2.96 z m 0,-6.03 H 0 v -2.99 h 2.96 z m 0,-6.02 H 0 v -2.99 h 2.96 z m 0,-6.03 H 0 v -2.98 h 2.96 z m 0,-6.02 H 0 V 80 h 2.96 z m 0,-6.02 H 0 V 73.98 H 2.96 Z M 0,68.02 h 2.96 v 2.95 H 0 Z m 21.08,2.95 h -3.02 v -2.95 h 3.02 z m -6.04,0 h -3.01 v -2.95 h 3.01 z M 9,70.97 H 5.98 V 68.02 H 9 Z m 15.11,-2.95 h 2.97 v 2.95 h -2.97 z m 14.92,2.95 h -3.01 v -2.95 h 3.01 z m -5.92,0 h -3.02 v -2.95 h 3.02 z m 5.92,24.09 h -2.95 v -3.01 h 2.95 z m 0,6 h -2.95 v -3.01 h 2.95 z m 0,-12.32 h -2.95 v -3.01 h 2.95 z m 0,-6.02 h -2.95 v -3.01 h 2.95 z m 0,-6.03 h -2.95 v -3 h 2.95 z"
   class="st4"
   id="path43"
   inkscape:connector-curvature="0"
   style="fill:#76bc2d;stroke:none;stroke-width:34;stroke-linecap:butt" />
				</g>
				<g
   id="shape13894-15"
   transform="translate(33.8547,-0.0566929)">
					<title
   id="title46">Sheet.13894</title>
					<path
   d="m 11.35,124.53 11.32,-11.29 a 0.581197,0.579528 -180 0 0 0,-0.81575 L 11.35,101.14 a 0.571721,0.570079 -180 0 0 -0.811781,0 0.565404,0.56378 -180 0 0 -0.170569,0.4126 L 10.36,108.19 a 0.581197,0.579528 0 0 1 -0.578039,0.57638 L 0.58,108.77 a 0.581197,0.579528 -180 0 0 -0.578039,0.57638 L 0,116.36 a 0.581197,0.579528 -180 0 0 0.578039,0.57638 L 9.79,116.93 a 0.57488,0.573228 0 0 1 0.578039,0.57323 L 10.37,124.13 a 0.57488,0.573228 -180 0 0 0.568563,0.57953 0.568563,0.566929 -180 0 0 0.40747,-0.18268 z"
   class="st5"
   id="path48"
   inkscape:connector-curvature="0"
   style="fill:url(#grad0-18);stroke:none;stroke-width:34;stroke-linecap:butt" />
				</g>
			</g>
		</g>
	</g>
</svg>

<?xml version="1.0" encoding="UTF-8" standalone="no"?>
<!DOCTYPE svg PUBLIC "-//W3C//DTD SVG 1.1//EN" "http://www.w3.org/Graphics/SVG/1.1/DTD/svg11.dtd">
<!-- Generated by Microsoft Visio, SVG Export Function App Scale out.svg Page-1 -->
<svg xmlns="http://www.w3.org/2000/svg" xmlns:xlink="http://www.w3.org/1999/xlink" xmlns:ev="http://www.w3.org/2001/xml-events"
		width="1.73185in" height="1.73206in" viewBox="0 0 124.693 124.709" xml:space="preserve" color-interpolation-filters="sRGB"
		class="st6">
	<style type="text/css">
	<![CDATA[
		.st1 {fill:url(#grad0-6);stroke:none;stroke-linecap:butt;stroke-width:34}
		.st2 {fill:#003067;stroke:none;stroke-linecap:butt;stroke-width:34}
		.st3 {fill:#5ea0ef;stroke:none;stroke-linecap:butt;stroke-width:34}
		.st4 {fill:#76bc2d;stroke:none;stroke-linecap:butt;stroke-width:34}
		.st5 {fill:url(#grad0-18);stroke:none;stroke-linecap:butt;stroke-width:34}
		.st6 {fill:none;fill-rule:evenodd;font-size:12px;overflow:visible;stroke-linecap:square;stroke-miterlimit:3}
	]]>
	</style>

	<defs id="Patterns_And_Gradients">
		<linearGradient id="grad0-6" x1="0" y1="0" x2="1" y2="0" gradientTransform="rotate(90 0.5 0.5)">
			<stop offset="0" stop-color="#b3b2b3" stop-opacity="1"/>
			<stop offset="1" stop-color="#979797" stop-opacity="1"/>
		</linearGradient>
		<linearGradient id="grad0-18" x1="0" y1="0" x2="1" y2="0" gradientTransform="rotate(115.68953273302 0.5 0.5)">
			<stop offset="0" stop-color="#6bb9f2" stop-opacity="1"/>
			<stop offset="1" stop-color="#1b93eb" stop-opacity="1"/>
		</linearGradient>
	</defs>
	<g>
		<title>Page-1</title>
		<g id="group13540-1" transform="translate(34,-34.0157)">
			<title>Function App Scale out.13540</title>
			<g id="group13541-2">
				<title>Sheet.13541</title>
				<g id="shape13542-3" transform="translate(6.46898,-7.70079)">
					<title>Sheet.13542</title>
					<path d="M23.35 123.49 A1.28558 1.28189 0 0 1 22 124.71 L1.35 124.71 A1.28558 1.28189 0 0 1 -0 123.49 L0 83.59
								 A1.28558 1.28189 0 0 1 1.35 82.37 L22 82.37 A1.28558 1.28189 0 0 1 23.35 83.58 L23.35 123.49 Z"
							class="st1"/>
				</g>
				<g id="shape13543-7" transform="translate(9.88667,-31.8961)">
					<title>Sheet.13543</title>
					<path d="M0 121.91 A2.67856 2.67087 0 0 1 2.53 119.12 L14.17 119.12 A2.68172 2.67402 0 0 1 16.7 121.91 A2.68172
								 2.67402 0 0 1 14.17 124.71 L2.54 124.71 A2.67856 2.67087 0 0 1 -0 121.91 ZM0 113.62 A2.67856 2.67087
								 0 0 1 2.53 110.83 L14.17 110.83 A2.68172 2.67402 0 0 1 16.7 113.62 A2.68172 2.67402 0 0 1 14.17
								 116.41 L2.54 116.41 A2.6754 2.66772 0 0 1 0 113.62 Z" class="st2"/>
				</g>
				<g id="shape13544-9" transform="translate(11.2796,-41.1181)">
					<title>Sheet.13544</title>
					<ellipse cx="1.87626" cy="122.838" rx="1.87626" ry="1.87087" class="st3"/>
				</g>
				<g id="shape13545-11" transform="translate(11.2796,-32.8283)">
					<title>Sheet.13545</title>
					<ellipse cx="1.87626" cy="122.838" rx="1.87626" ry="1.87087" class="st3"/>
				</g>
				<g id="shape13546-13">
					<title>Sheet.13546</title>
					<path d="M9 124.71 L5.98 124.71 L5.98 121.75 L9 121.75 L9 124.71 ZM14.95 124.71 L11.94 124.71 L11.94 121.75 L14.96
								 121.75 L14.95 124.71 ZM20.9 124.71 L17.89 124.71 L17.89 121.75 L20.91 121.75 L20.9 124.71 ZM26.86
								 124.71 L23.85 124.71 L23.85 121.75 L26.87 121.75 L26.86 124.71 ZM32.82 124.71 L29.81 124.71 L29.81
								 121.75 L32.82 121.75 L32.82 124.71 ZM39.06 124.71 L36.05 124.71 L36.05 121.75 L39.06 121.75 L39.06
								 124.71 ZM0 121.75 L2.96 121.75 L2.96 124.71 L0 124.71 L0 121.75 ZM0 116.09 L2.96 116.09 L2.96 119.04
								 L0 119.04 L0 116.09 ZM0 110.16 L2.96 110.16 L2.96 113.12 L0 113.12 L0 110.16 ZM2.96 107.09 L0 107.09
								 L0 104.08 L2.96 104.08 L2.96 107.09 ZM2.96 101.06 L0 101.06 L0 98.07 L2.96 98.07 L2.96 101.06 ZM2.96
								 95.04 L0 95.04 L0 92.05 L2.96 92.05 L2.96 95.04 ZM2.96 89.01 L0 89.01 L0 86.03 L2.96 86.03 L2.96
								 89.01 ZM2.96 82.99 L0 82.99 L0 80 L2.96 80 L2.96 82.99 ZM2.96 76.97 L0 76.97 L0 73.98 L2.96 73.98
								 L2.96 76.97 ZM0 68.02 L2.96 68.02 L2.96 70.97 L0 70.97 L0 68.02 ZM21.08 70.97 L18.06 70.97 L18.06
								 68.02 L21.08 68.02 L21.08 70.97 ZM15.04 70.97 L12.03 70.97 L12.03 68.02 L15.04 68.02 L15.04 70.97
								 ZM9 70.97 L5.98 70.97 L5.98 68.02 L9 68.02 L9 70.97 ZM24.11 68.02 L27.08 68.02 L27.08 70.97 L24.11
								 70.97 L24.11 68.02 ZM39.03 70.97 L36.02 70.97 L36.02 68.02 L39.03 68.02 L39.03 70.97 ZM33.11 70.97
								 L30.09 70.97 L30.09 68.02 L33.11 68.02 L33.11 70.97 ZM39.03 95.06 L36.08 95.06 L36.08 92.05 L39.03
								 92.05 L39.03 95.06 ZM39.03 101.06 L36.08 101.06 L36.08 98.05 L39.03 98.05 L39.03 101.06 ZM39.03
								 88.74 L36.08 88.74 L36.08 85.73 L39.03 85.73 L39.03 88.74 ZM39.03 82.72 L36.08 82.72 L36.08 79.71
								 L39.03 79.71 L39.03 82.72 ZM39.03 76.69 L36.08 76.69 L36.08 73.69 L39.03 73.69 L39.03 76.69 Z"
							class="st4"/>
				</g>
				<g id="shape13547-15" transform="translate(33.8547,-0.0566929)">
					<title>Sheet.13547</title>
					<path d="M11.35 124.53 L22.67 113.24 a0.581197 0.579528 -180 0 0 3.19744E-14 -0.815748 L11.35 101.14 a0.571721
								 0.570079 -180 0 0 -0.811781 -1.42109E-14 a0.565404 0.56378 -180 0 0 -0.170569 0.412598 L10.36 108.19
								 a0.581197 0.579528 0 0 1 -0.578039 0.576378 L0.58 108.77 a0.581197 0.579528 -180 0 0 -0.578039 0.576378
								 L0 116.36 a0.581197 0.579528 -180 0 0 0.578039 0.576378 L9.79 116.93 a0.57488 0.573228 0 0 1 0.578039
								 0.573228 L10.37 124.13 a0.57488 0.573228 -180 0 0 0.568563 0.579528 a0.568563 0.566929 -180 0 0
								 0.40747 -0.182677 Z" class="st5"/>
				</g>
			</g>
		</g>
	</g>
</svg>
